X:1
T:Title
%%score 1 2
L:1/8
Q:1/4=90
M:4/4
K:D
V:1 treble nm="Drawbar Organ, Soprano"
V:2 bass nm="Choir Pad, The Beginning of Months"
V:1
 [DF]3 [EG] [FA]2 [CF]2 | [Gd]3 [GB] [FA]4 | [DF]2 [EG]2 [FA][DF][A,E][B,D] | [CE]8 | %4
w: By~Joe~Uthup,~2017 * * *||||
 [DF]3 [EG] [FA]2 [DF]2 | [B,D]2 [B,E]2 [^A,F]3 [A,G] | [FA]2 [DF][K:bass][A,D] [G,E]3 [F,D] | %7
w: |||
 [F,D]8 | [Dd]2 [DA]2 [DB]2 [DG]2 | [DE]2 [D^G]2 [CA]4 | [CA]2 [Ec]2 [Fd]2 [GB]2 | %11
w: ||||
 [EA]2 [E^G]2 [EA]4 | [Fd]3 [Fd] [GB]2 [Gd]2 | [Ad]2 [Gc]2 [Fd]4- | [Fd]4 z4 |] %15
w: ||||
V:2
 [D,A,]3 [D,A,] [C,A,]2 [C,A,]2 | [B,,G,]3 [B,,G,] [A,,F,]4 | %2
 [A,,A,]2 [G,,G,]2 [F,,F,]2 [E,,E,][^G,,E,] | [A,,E,]8 | [D,A,]3 [C,A,] [=C,F,]2 [C,A,]2 | %5
 [B,,G,]2 [B,,G,]2 [G,,D,]3 [G,,E,] | [F,,D,]2 [B,,F,]2 [E,,E,]2 [A,,E,]2 | [D,,D,]8 | %8
 [D,,D,]2 [F,,F,]2 [G,,G,]2 [B,,G,]2 | [B,,G,]2 [B,,E,]2 [A,,E,]4 | %10
 [A,,F,]2 [^A,,F,]2 [B,,F,]2 [G,,G,]2 | [A,,G,]2 [B,,^G,]2 [C,A,][E,C][D,B,][C,A,] | %12
 [B,,F,]3 [A,,F,] [G,,D,]2 [G,,E,]2 | [E,,E,]2 [A,,E,]2 [D,,D,]4- | [D,,D,]4 z4 |] %15

